images_sukapura_svg/cmd/lc_alignup.svg

<svg viewBox="0 0 24 24" xmlns="http://www.w3.org/2000/svg" xmlns:xlink="http://www.w3.org/1999/xlink"><linearGradient id="a" gradientUnits="userSpaceOnUse" x1="17" x2="6" y1="3" y2="3"><stop offset="0" stop-color="#0040dd"/><stop offset="1" stop-color="#0a84ff"/></linearGradient><g transform="matrix(0 1 -1 0 26 -2)"><path d="m6.5 18.5h10v5h-10z" fill="#fc0" stroke="#e4b500" stroke-linecap="round" stroke-linejoin="round" stroke-opacity=".998039"/><path d="m9.484375 2a.50085546.50085546 0 0 0 -.3378906.1464844l-3 3a.50085546.50085546 0 0 0 0 .7070312l3 3a.50085546.50085546 0 0 0 .8535156-.3535156v-1.5h6.5c.276999 0 .5-.223.5-.5v-2c0-.277-.223001-.5-.5-.5h-6.5v-1.5a.50085546.50085546 0 0 0 -.515625-.5z" fill="url(#a)"/><rect fill="#69696e" height="1" ry=".5" transform="matrix(0 -1 -1 0 0 0)" width="20" x="-24" y="-5"/><path d="m6.5 10.5h16v5h-16z" fill="#fff" stroke="#98989d" stroke-linecap="round" stroke-linejoin="round"/></g></svg>

<?xml version="1.0" encoding="UTF-8" standalone="no"?>
<svg
   xmlns:dc="http://purl.org/dc/elements/1.1/"
   xmlns:cc="http://creativecommons.org/ns#"
   xmlns:rdf="http://www.w3.org/1999/02/22-rdf-syntax-ns#"
   xmlns:svg="http://www.w3.org/2000/svg"
   xmlns="http://www.w3.org/2000/svg"
   xmlns:xlink="http://www.w3.org/1999/xlink"
   xmlns:sodipodi="http://sodipodi.sourceforge.net/DTD/sodipodi-0.dtd"
   xmlns:inkscape="http://www.inkscape.org/namespaces/inkscape"
   viewBox="0 0 24 24"
   version="1.1"
   id="svg16"
   sodipodi:docname="lc_alignup.svg"
   inkscape:export-filename="/home/rizmut/Dokumen/Rizmut/Github/libreoffice-style-sukapura/images_sukapura/cmd/lc_alignup.png"
   inkscape:export-xdpi="96"
   inkscape:export-ydpi="96"
   inkscape:version="0.92.3 (unknown)">
  <metadata
     id="metadata22">
    <rdf:RDF>
      <cc:Work
         rdf:about="">
        <dc:format>image/svg+xml</dc:format>
        <dc:type
           rdf:resource="http://purl.org/dc/dcmitype/StillImage" />
        <dc:title></dc:title>
      </cc:Work>
    </rdf:RDF>
  </metadata>
  <defs
     id="defs20">
    <linearGradient
       gradientTransform="translate(75,-7)"
       id="a-367"
       gradientUnits="userSpaceOnUse"
       x1="14"
       x2="13.79661"
       y1="22"
       y2="2.1355929">
      <stop
         offset="0"
         stop-color="#0040dd"
         id="stop2206" />
      <stop
         offset="1"
         stop-color="#0a84ff"
         id="stop2208" />
    </linearGradient>
    <linearGradient
       inkscape:collect="always"
       xlink:href="#a-367"
       id="linearGradient851"
       x1="13"
       y1="7.005054"
       x2="2"
       y2="7.005054"
       gradientUnits="userSpaceOnUse"
       gradientTransform="translate(4,-4.005054)" />
    <clipPath
       clipPathUnits="userSpaceOnUse"
       id="clipPath962">
      <path
         id="path964"
         d="m 4,11 h 8 v 3 H 4 Z"
         style="fill:#000000;fill-opacity:1"
         inkscape:connector-curvature="0" />
    </clipPath>
  </defs>
  <sodipodi:namedview
     pagecolor="#ffffff"
     bordercolor="#666666"
     borderopacity="1"
     objecttolerance="10"
     gridtolerance="10"
     guidetolerance="10"
     inkscape:pageopacity="0"
     inkscape:pageshadow="2"
     inkscape:window-width="1366"
     inkscape:window-height="706"
     id="namedview18"
     showgrid="true"
     inkscape:zoom="8"
     inkscape:cx="-13.031781"
     inkscape:cy="14.468661"
     inkscape:window-x="0"
     inkscape:window-y="0"
     inkscape:window-maximized="1"
     inkscape:current-layer="g14">
    <inkscape:grid
       type="xygrid"
       id="grid829"
       spacingx="0.5"
       spacingy="0.5"
       empspacing="2" />
  </sodipodi:namedview>
  <g
     transform="rotate(90,14,12)"
     id="g14">
    <path
       inkscape:connector-curvature="0"
       d="m 6.5,18.5 h 10 v 5 h -10 z"
       id="path2"
       style="fill:#ffcc00;fill-opacity:1;stroke:#e4b500;stroke-linecap:round;stroke-linejoin:round;stroke-opacity:0.99803922"
       sodipodi:nodetypes="ccccc" />
    <path
       inkscape:connector-curvature="0"
       style="fill:url(#linearGradient851);fill-opacity:1;stroke:none;stroke-linecap:round;stroke-linejoin:round"
       d="M 9.484375,2 A 0.50085546,0.50085546 0 0 0 9.1464844,2.1464844 l -3,3 a 0.50085546,0.50085546 0 0 0 0,0.7070312 l 3,3 A 0.50085546,0.50085546 0 0 0 10,8.5 V 7 h 6.5 C 16.776999,7 17,6.777 17,6.5 v -2 C 17,4.223 16.776999,4 16.5,4 H 10 V 2.5 A 0.50085546,0.50085546 0 0 0 9.484375,2 Z"
       id="path4" />
    <rect
       height="1"
       ry="0.5"
       width="20"
       x="-24"
       y="-5"
       id="rect10"
       style="fill:#69696e;fill-opacity:1"
       transform="matrix(0,-1,-1,0,0,0)" />
    <path
       inkscape:connector-curvature="0"
       d="m 6.5,10.5 16,0 v 5 l -16,0 z"
       id="path12"
       style="fill:#ffffff;stroke:#98989d;stroke-linecap:round;stroke-linejoin:round;stroke-opacity:1"
       sodipodi:nodetypes="ccccc" />
  </g>
</svg>
